X: 32928
T: Prayer For The Dawn
R: waltz
M: 3/4
K: Edorian
M:4/4
JB3 d4 e-|e3{a}ed4-|dA3{c}A/G/A2JB-|B3{c}BAB3-|B4z4|z2 D2 G/A/ EFA|
AJB2d2Je3|{a}ed3-d2z2|GJA2 JB3 c/B/A-|AJB4-B3-|B2z4EG|A/B/d2Je2{a}ed2|
Je8|fJga/g/fJe2{a}ed|JBd4-d3-|d2z2G2FG|AJB4-B3|!>!A6z2|
zJG3{A}GE3|{A}EDE2F4-|!>!F6z2|z3DEGAA|B2d4e2-|e3{a}ed4-|
d2zJA4JE|GJA4B2A|B8|z4DJEAE|JF4 A/B/ d2e-|e2{a}ed4z|zA6B-|
B2c/B/A2B3-|B3z3z2|GA<Bd3e2-|e{a}ed2e4-|e6fJg-|g2{a}gfJe4-|
e4{a}edAJB-|Bd4-d3-|d2zG2{G}G/F/GA-|AB4{c}BGA-|!>!A6z2|FJG{A}GJE3-E2|
{A}DE2EF4-|!>!F6z2|z3fg3{a}g|fJe3-e2{a}ed-|d3ABc/B/AB|d6z2|
z3D (3GAE JF2|z2fJg a/g/fdJe-|e3{a}ed4|zAJB2 (3cBA GJA-|!>!A6z2|zfg2aJf2e|
dJe3{a}ed3|zAJB{c}BAG3-|G2{A}GE4{A}E-|E2JF6-|!>!F3z3z2|zFG3{A}GEJF-|
{A}FDJE6-|DG4-G3|z4EGAJF-|F4J.GJF3-|F2J.GJE3{A}ED-|DJE4-E3|!>!E8|

